client/src/data/flag-icon-css-master/flags/1x1/gy.svg

<svg viewBox="0 0 512 512" xmlns="http://www.w3.org/2000/svg"><g fill-rule="evenodd"><path d="m2 0h510v512h-510z" fill="#399408"/><path d="m.1 0c-.6 0 495.7 257.6 495.7 257.6l-495.8 254.1z" fill="#fff"/><path d="m.2 21.5c2.8 0 447.3 232.5 444.8 234.7l-443.5 238-1.3-472.8z" fill="#ffde08"/><path d="m1.5.8c1.5 0 232.8 257 232.8 257l-232.8 251z"/><path d="m.2 36.2c1.4-16 208.8 222.3 208.8 222.3l-208.8 223.3z" fill="#de2110"/></g></svg>

<svg xmlns="http://www.w3.org/2000/svg" id="flag-icon-css-gy" viewBox="0 0 512 512">
  <g fill-rule="evenodd">
    <path fill="#399408" d="M2 0h510v512H2z"/>
    <path fill="#fff" d="M.1 0c-.6 0 495.7 257.6 495.7 257.6L0 511.7.1 0z"/>
    <path fill="#ffde08" d="M.2 21.5C3 21.5 447.5 254 445 256.2L1.5 494.2.2 21.4z"/>
    <path d="M1.5.8c1.5 0 232.8 257 232.8 257L1.5 508.8V.8z"/>
    <path fill="#de2110" d="M.2 36.2C1.6 20.2 209 258.5 209 258.5L.2 481.8V36.2z"/>
  </g>
</svg>
